X:1
T:Dichterliebe, Op.48
T:Im Rhein, im heiligen Strome
T:6. Im Rhein, im heiligen Strome
T:Robert Schumann
T:Dichterliebe, Op.48
T:Heinrich Heine
T:OpenScore (CC0)
T:OpenScore (CC0)
T:OpenScore (CC0)
C:Robert Schumann
Z:Heinrich Heine
Z:OpenScore (CC0)
%%score 1 { ( 2 4 6 7 ) | ( 3 5 ) }
L:1/8
Q:1/4=80
M:2/2
K:G
V:1 treble nm="Voice"
V:2 treble nm="Piano"
V:4 treble 
V:6 treble 
V:7 treble 
V:3 bass 
V:5 bass 
V:1
!f!"^Ziemlich langsam." E | E7 E | F4 F3 F | G8 | G2 z2 c4 | B4 A4 | G4 F2 F2 | E8 | z4 E4 | E7 E | %10
w: Im|Rhein, im|hei- li- gen|Stro-|me, da|spie- gelt|sich in den|Well'n,|mit|sei- nem|
 F6 F2 | G8 | G2 z2 c4 | B4 A4 | G4 =F2 F2 | E8 | z4 z2!p! E2 | c7 c | d7 c | (B3 d) c3 B | %20
w: gro- ssen|Do-|me, das|gros- se,|hei- li- ge|Köln.|Im|Dom da|steht ein|Bild- * niss, auf|
 A2 c c B2 A A | G8 | z4 z2 z A | B7 B | c7 (d/e/) | (e3 d) c2 B2 | A2 B B c3 A | B2 z2 z4 | z8 | %29
w: gol- de- nem Le- der ge-|malt;|in|mei- nes|Le- bens *|Wild- * niss hat's|freund- lich hin- ein ge-|strahlt.||
 z8 | z8 | z2 z G c3 B | (A3 c) B3 A | (^G3 B) A3 c | d3 (e/=f/) e3 d | c2 z2 z2 z e | c4 A3 A | %37
w: ||Es schwe- ben|Blu- * men und|Eng- * lein um|uns- re * lie- be|Frau; die|Au- gen, die|
 =F4 D2 z =f | d4 B3 B | G4 E2 z =F | (G3 ^G) A2 =G2 |"^ritard." (^F2 G2) F3 E | ^D6 z2 | z8 | z8 | %45
w: Lip- pen, die|Lip- pen, die|Wäng- lein, die|glei- * chen der|Lieb- * sten ge-|nau.|||
 z8 | z8 | z8 | z8 | z8 | z8 | z8 | z8 | z8 | z8 | z8 | z8 | z8 | !fermata!z8 |] %59
w: ||||||||||||||
V:2
 z |!f! z2 z (B A3) (E | ^D2)[I:staff +1] (C A,3) F,[I:staff -1] x | z2 z (e B3) (G | %4
 E3) (B,[I:staff +1] A,3) F, |[I:staff -1] z2 z[I:staff +1] (G, F,3) (C | %6
 B,3)[I:staff -1] (E ^D3) A | z2 z (G B,3) [A,F] | E4 E4 | z2 z (E C3)[I:staff +1] (A, | %10
 F,3) (^D, C,3) B,, |[I:staff -1] z2 z (B G3) (E |[I:staff +1] B,3) (G, E,3) (C | %13
 B,3)[I:staff -1] (E ^D3) (A | E3) (G C3) =F | z2 z (E D3)[I:staff +1] (B, | %16
!>(! ^G,3) (E, D,3) B,,!>)! |!p![I:staff -1] ([Cc]8 | [Dd]7 [Cc] | [B,B]3 [Dd] [Cc]3 [B,B] | %20
 [A,A]3 [Cc] [B,B]3 [A,A]) | !>!G8 | !>![A,A]8 | !>![B,B]8 | (c7 d/e/) | (e3 d c3 B) | %26
 (A3 B c3 A) | B4!p! ([G_B]4 | [=E_B]4) A4- | A4 [=F_A-]4 | [=DA]4 G4- | G4 [EG]4 | ^F4 [D=F]4- | %33
 [DF]4 [A,E]4 | (D3 E/=F/ E3 D) | [A,C]3 (E- [Ece]3) ([Bd] | [Ac]3) ([B,B] [CA]3) ([E-G] | %37
 [E=F]3) (D [d=f]3) ([ce] | [Bd]3) ([Cc] [DB]3) ([=F-A] | [FG]3) (E- [Eeg]3) ([=Fd=f] | %40
 [Gce]3) [^GBd] c4- |"^ritard." c4 ^A4 | B4 ^D3 B, |!>(! z8!>)! | z2 z!mf! (B G3) (E | %45
[I:staff +1] ^D3) (C A,3) F, |[I:staff -1] z2 z (e B3) (G | E3) (B,[I:staff +1] A,3) F, | %48
[I:staff -1] z2 z (G, F,3) (C | B,3) (E ^D3) (A | G3) =D C3 B, | A,3 C B,3 =F | %52
 E3[I:staff +1] B, A,3 G, | F,3 A, ^G,3 D | C3 =G, F,3 E, | ^D,3 F, E,3 ^C, | %56
[I:staff -1] z2 z[I:staff +1] E,"_dim." B,,3 =D, | =C,3 A,, F,,3 B,, | !fermata!E,8 |] %59
V:3
 z | !>![E,,E,]8 | !>![F,,F,]8 | !>![G,,G,]8- | [G,,G,]4 [C,C]4 | [B,,B,]4 [A,,A,]4 | %6
 [G,,G,]4 [F,,F,]4 | [E,,E,]8- | [E,,E,]3 [D,,D,] [C,,C,]3 [B,,,B,,] | [A,,,A,,]8- | [A,,,A,,]8 | %11
 [G,,,G,,]8- | [G,,,G,,]4 [A,,,A,,]4 | [G,,,G,,]4 [C,,C,]4 | [B,,,B,,]4 [A,,,A,,]4 | %15
 [^G,,,^G,,]8- | [G,,,G,,]8 | [A,,,A,,]3 E, A,3 =G, | D,3 E, D,3 F, | G,3 F, E,3 D, | %20
 C,3 [A,,E,] D,3 [D,,C,] | G,,8- | [A,^C]3 [G,B,] [F,A,]3 [E,G,] | G,,8- | %24
 [CE]3 [B,D] [A,C]3 [G,B,] | ([F,^A,]3 [G,B,] [=A,C]3 [B,D]) | E7 D | G,4 [G,,G,]4- | %28
 [G,,G,]4 [=F,,=F,]4- | [F,,F,]8- | [F,,F,]4 [E,,E,]4- | [E,,E,]8- | [E,,E,]4 [D,,D,]4- | %33
 [D,,D,]4 [C,,C,]4 | [B,,,B,,]4 [E,,E,]4- | [E,,E,]4 !>![A,,,A,,]4- | [A,,,A,,]8- | %37
 [A,,,A,,]4 !>![B,,,B,,]4- | [B,,,B,,]8- | [B,,,B,,]4 !>![C,,C,]4- | [C,,C,]8- | %41
 [C,,C,]4 [C,,C,]4 | [B,,,B,,]8- | F,3 ^D, B,,3 F,, | !>![E,,E,]8 | !>![F,,F,]8 | !>![G,,G,]8- | %47
 [G,,G,]4 [C,C]4 | [B,,B,]4 [A,,A,]4 | [G,,G,]4 [F,,F,]4- | [F,,F,]4 [E,,E,]4- | %51
 [E,,E,]4 [D,,D,]4- | [D,,D,]4 [C,,C,]4- | [C,,C,]4 [B,,,B,,]4- | [B,,,B,,]4 [A,,,A,,]4- | %55
 [A,,,A,,]4 [^A,,,^A,,]4 | B,,4 (^G,,4 | A,,4) ^D,4 | !fermata![E,,G,,B,,]8 |] %59
V:4
 x | x8 | x8 | x8 | x8 | x8 | x8 | x8 | G,3 (^G, A,3) B, | x8 | x8 | x8 | x8 | x8 | x8 | x8 | x8 | %17
 x8 | x8 | x8 | x8 | [G,G]3 [DF] [^CE]3 [B,D] | x8 | %23
[I:staff +1] [^D,F,]3[I:staff -1] [FA] [EG]3 [=DF] | x8 | x8 | G7 F | G3 B, _E3 D | %28
 ^C3 B, [=B,D]3 C | D3 A, _D3 =C | B,3 G, [=A,C]3 B, | C3 G, C3 B, | A,3 C B,3 A, | ^G,3 B, A,3 C | %34
 A,4 ^G,4 | x8 | x8 | x8 | x8 | x8 | x4 ([Ac]2 [=GB]2 | [^FA]2 G2 F2 E2) | ^D4 x4 | x8 | x8 | x8 | %46
 x8 | x8 | x8 | x8 | x8 | x8 | x8 | x8 | x8 | x8 | x8 | x8 | x8 |] %59
V:5
 x | x8 | x8 | x8 | x8 | x8 | x8 | x8 | x8 | x8 | x8 | x8 | x8 | x8 | x8 | x8 | x8 | x8 | F,3 x5 | %19
 x8 | x8 | B,,2 x6 | G,,8 | x8 | G,,8 | G,,8 | (C3 B, A,3 D) | x8 | x8 | x8 | x8 | x8 | x8 | x8 | %34
 x8 | x8 | x8 | x8 | x8 | x8 | x8 | x8 | x8 | [B,,,B,,]8 | x8 | x8 | x8 | x8 | x8 | x8 | x8 | x8 | %52
 x8 | x8 | x8 | x8 | B,,,8- | B,,,8 | x8 |] %59
V:6
 x | x8 | x8 | x8 | x8 | x8 | x8 | x8 | x8 | x8 | x8 | x8 | x8 | x8 | x8 | x8 | x8 | x8 | x8 | x8 | %20
 x8 | x8 | x8 | x8 | x8 | x8 | x4 c3 x | x8 | x8 | x8 | x8 | x8 | x8 | x8 | x8 | x8 | x8 | x8 | %38
 x8 | x8 | x8 | x8 | x8 | x8 | x8 | x8 | x8 | x8 | x8 | x8 | x8 | x8 | x8 | x8 | x8 | x8 | x8 | %57
 x8 | x8 |] %59
V:7
 x | x8 | x8 | x8 | x8 | x8 | x8 | x8 | x8 | x8 | x8 | x8 | x8 | x8 | x8 | x8 | x8 | x8 | x8 | x8 | %20
 x8 | x8 | x8 | x8 | x8 | x8 | x8 | x8 | x8 | x8 | x8 | x8 | x8 | x8 | x8 | x8 | x8 | x8 | x8 | %39
 x8 | x8 | x8 | B3 F x4 | x8 | x8 | x8 | x8 | x8 | x8 | x8 | x8 | x8 | x8 | x8 | x8 | x8 | x8 | %57
 x8 | x8 |] %59

